!!!OTL: GAR LIEBLICH HAT SICH GESELLET
!!!ARE: Europa, Mitteleuropa, Deutschland
!!!SCT: Z0307
!!!YEM: Copyright 1995, estate of Helmut Schaffrath.
**kern
*ICvox
*Ivox
*M2/4
*k[f#]
*G:
{8g
=1
8dd
16dd
16dd
8dd
8dd
=2
8dd
4ee}
{8dd
=3
8cc
8b
8cc
8dd
=4
4b
8r}
{8g
=5
8dd
16dd
16dd
8dd
8dd
=6
8dd
4ee}
{8dd
=7
8cc
8b
8cc
8dd
=8
4b
8r}
{8dd
=9
8a
8a
8a
8dd
=10
8a
8a
8a}
{8dd
=11
8ee
8dd
8cc
8b
=12
4a}
{4dd
=13
8b
8a
8g
8f#
=14
4g
8r}
==
!!!AGN: Lyrisches Lied, Romanze, Liebes - Lied
!!!ONB: ESAC (Essen Associative Code) Database: ZUCCAL
!!!AMT: simple duple
!!!AIN: vox
!!!EED: Helmut Schaffrath
!!!EEV: 1.0
*-
